src/assets/flag-tajikistan.svg

<svg width="36" height="35" viewBox="0 0 36 35" fill="none" xmlns="http://www.w3.org/2000/svg">
<g clip-path="url(#clip0_353_99)">
<path d="M31.5828 4.86133H4.36057C3.32917 4.86133 2.34002 5.27105 1.61071 6.00036C0.881401 6.72967 0.47168 7.71882 0.47168 8.75022L0.47168 13.1252H35.4717V8.75022C35.4717 7.71882 35.062 6.72967 34.3326 6.00036C33.6033 5.27105 32.6142 4.86133 31.5828 4.86133Z" fill="#CC0000"/>
<path d="M0.47168 26.25C0.47168 27.2814 0.881401 28.2706 1.61071 28.9999C2.34002 29.7292 3.32917 30.1389 4.36057 30.1389H31.5828C32.6142 30.1389 33.6033 29.7292 34.3326 28.9999C35.062 28.2706 35.4717 27.2814 35.4717 26.25V21.875H0.47168V26.25Z" fill="#006600"/>
<path d="M0.47168 13.125H35.4717V21.875H0.47168V13.125Z" fill="white"/>
<path d="M16.1532 20.859C15.7565 20.9718 15.5251 20.5945 15.5251 20.5945L15.8392 20.4536L15.9908 19.9674L16.3049 20.4195H16.6588C16.6597 20.4186 16.579 20.7374 16.1532 20.859ZM21.1563 21.2838C20.5486 21.1011 19.1321 20.858 18.0568 20.858C16.9835 20.858 15.566 21.1011 14.9574 21.2838C14.3488 21.4666 14.4917 22.0529 14.9574 21.8701C15.4231 21.6873 16.5576 21.5055 18.0568 21.5055C19.556 21.5055 20.6906 21.6883 21.1563 21.8701C21.6229 22.0529 21.7639 21.4666 21.1563 21.2838ZM18.3008 20.1901L18.0578 19.7847L17.8147 20.1901L17.3889 20.3729C17.3889 20.3729 17.6922 20.7161 18.0578 20.7161C18.4233 20.7161 18.7267 20.3729 18.7267 20.3729L18.3008 20.1901ZM19.9624 20.859C20.359 20.9718 20.5904 20.5945 20.5904 20.5945L20.2764 20.4536L20.1247 19.9674L19.8117 20.4195H19.4568C19.4549 20.4186 19.5365 20.7374 19.9624 20.859Z" fill="#FFAC33"/>
<path d="M22.2908 19.6388C22.1897 19.3792 21.9389 20.0743 21.2583 19.9674C20.4883 19.8458 20.3269 19.0758 20.3269 19.0758C20.3269 19.0758 19.7193 19.6844 19.0912 19.4006C18.4632 19.1167 18.3018 18.7122 18.3018 18.266C18.3018 17.8197 18.2444 17.4921 18.3018 17.3142C18.3932 17.0303 18.7276 16.8271 19.0718 17.1518C19.3557 16.7474 18.8696 15.8967 18.0587 15.8967C17.2489 15.8967 16.7628 16.7474 17.0457 17.1518C17.3899 16.8281 17.7243 17.0303 17.8157 17.3142C17.8731 17.4921 17.8157 17.8197 17.8157 18.266C17.8157 18.7122 17.6533 19.1167 17.0262 19.4006C16.3992 19.6844 15.7906 19.0758 15.7906 19.0758C15.7906 19.0758 15.6282 19.8458 14.8592 19.9674C14.1786 20.0743 13.9278 19.3792 13.8267 19.6388C13.7256 19.8983 14.2719 20.6761 15.0419 20.4243C15.8119 20.1715 15.9131 19.5221 15.9131 19.5221C15.9131 19.5221 16.3087 20.2503 17.2294 19.9674C17.9236 19.7535 18.0597 19.0963 18.0597 19.0963C18.0597 19.0963 18.1968 19.7535 18.89 19.9674C19.8117 20.2503 20.2064 19.5221 20.2064 19.5221C20.2064 19.5221 20.3075 20.1715 21.0775 20.4243C21.8456 20.6761 22.3929 19.8974 22.2908 19.6388ZM17.3889 16.6249C17.5901 16.1971 18.0578 16.2603 18.0578 16.2603C18.0578 16.2603 18.5244 16.1971 18.7267 16.6249C18.3825 16.6647 18.0578 16.9282 18.0578 16.9282C18.0578 16.9282 17.7331 16.6657 17.3889 16.6249ZM13.4397 17.5913L13.6312 18.1843H14.2544L13.7508 18.5508L13.9433 19.1419L13.4397 18.7754L12.9361 19.1419L13.1276 18.5508L12.624 18.1843H13.2472L13.4397 17.5913ZM14.0474 15.4242L14.2389 16.0172H14.8621L14.3585 16.3838L14.551 16.9749L14.0474 16.6083L13.5437 16.9749L13.7353 16.3838L13.2317 16.0172H13.8549L14.0474 15.4242ZM15.6768 13.6819L15.8693 14.275H16.4925L15.9889 14.6415L16.1804 15.2326L15.6768 14.8661L15.1732 15.2326L15.3657 14.6415L14.8621 14.275H15.4853L15.6768 13.6819ZM18.0578 13.0947L18.2493 13.6868H18.8725L18.3689 14.0533L18.5614 14.6444L18.0578 14.2779L17.5542 14.6444L17.7457 14.0533L17.2421 13.6868H17.8653L18.0578 13.0947ZM22.5028 17.5913L22.3112 18.1843H21.6881L22.1917 18.5508L21.9992 19.1419L22.5028 18.7754L23.0064 19.1419L22.8139 18.5508L23.3185 18.1843H22.6953L22.5028 17.5913ZM21.8951 15.4242L21.7036 16.0172H21.0804L21.584 16.3838L21.3915 16.9749L21.8951 16.6083L22.3987 16.9749L22.2062 16.3838L22.7108 16.0172H22.0876L21.8951 15.4242ZM20.2657 13.6819L20.0732 14.275H19.45L19.9546 14.6415L19.7621 15.2326L20.2657 14.8661L20.7693 15.2326L20.5768 14.6415L21.0804 14.275H20.4572L20.2657 13.6819Z" fill="#FFAC33"/>
</g>
<defs>
<clipPath id="clip0_353_99">
<rect x="0.47168" width="35" height="35" fill="white"/>
</clipPath>
</defs>
</svg>

<svg xmlns="http://www.w3.org/2000/svg" width="36" height="35" fill="none"><g clip-path="url(#a)"><path fill="#C00" d="M31.583 4.861H4.36a3.889 3.889 0 0 0-3.89 3.89v4.374h35V8.75a3.889 3.889 0 0 0-3.888-3.889Z"/><path fill="#060" d="M.472 26.25a3.889 3.889 0 0 0 3.889 3.889h27.222a3.889 3.889 0 0 0 3.889-3.889v-4.375h-35v4.375Z"/><path fill="#fff" d="M.472 13.125h35v8.75h-35v-8.75Z"/><path fill="#FFAC33" d="M16.153 20.859c-.396.113-.628-.265-.628-.265l.314-.14.152-.487.314.453h.354c0-.001-.08.317-.506.439Zm5.003.425c-.607-.183-2.024-.426-3.1-.426-1.073 0-2.49.243-3.099.426-.608.183-.465.769 0 .586.466-.183 1.6-.364 3.1-.364 1.499 0 2.634.182 3.1.364.466.183.607-.403 0-.586Zm-2.855-1.094-.243-.405-.243.405-.426.183s.303.343.669.343c.365 0 .669-.343.669-.343l-.426-.183Zm1.661.669c.397.113.628-.265.628-.265l-.314-.14-.151-.487-.313.453h-.355c-.002-.001.08.317.505.439Z"/><path fill="#FFAC33" d="M22.29 19.639c-.1-.26-.351.435-1.032.328-.77-.121-.931-.891-.931-.891s-.608.608-1.236.325c-.628-.284-.79-.689-.79-1.135 0-.446-.057-.774 0-.952.092-.284.427-.487.77-.162.285-.405-.201-1.255-1.012-1.255-.81 0-1.296.85-1.013 1.255.344-.324.678-.122.77.162.057.178 0 .506 0 .952 0 .446-.163.85-.79 1.135-.627.283-1.235-.325-1.235-.325s-.163.77-.932.891c-.68.107-.931-.588-1.032-.328-.101.26.445 1.037 1.215.785.77-.252.871-.902.871-.902s.396.728 1.316.445c.695-.213.83-.87.83-.87s.138.656.831.87c.922.283 1.316-.445 1.316-.445s.102.65.872.902c.768.252 1.315-.527 1.213-.785Zm-4.901-3.014c.201-.428.669-.365.669-.365s.466-.063.669.365c-.345.04-.67.303-.67.303s-.324-.262-.668-.303Zm-3.95.966.192.593h.623l-.503.367.192.59-.503-.366-.504.367.192-.591-.504-.367h.623l.193-.593Zm.608-2.167.192.593h.623l-.504.367.193.59-.504-.366-.503.367.191-.591-.503-.367h.623l.192-.593Zm1.63-1.742.192.593h.623l-.503.367.191.59-.503-.366-.504.367.193-.591-.504-.367h.623l.192-.593Zm2.38-.587.192.592h.623l-.503.366.192.591-.503-.366-.504.366.192-.59-.504-.367h.623l.193-.592Zm4.446 4.496-.192.593h-.623l.504.367-.193.59.504-.366.503.367-.192-.591.505-.367h-.624l-.192-.593Zm-.608-2.167-.191.593h-.624l.504.367-.192.59.503-.366.504.367-.193-.591.505-.367h-.623l-.193-.593Zm-1.63-1.742-.192.593h-.623l.505.367-.193.59.504-.366.503.367-.192-.591.503-.367h-.623l-.191-.593Z"/></g><defs><clipPath id="a"><path fill="#fff" d="M.472 0h35v35h-35z"/></clipPath></defs></svg>
